;Generated with Cura_SteamEngine 15.01
G28 ; Home extruder
G1 Z5 F300
G1 Z0 F300
M106 S165 ; Turn on fan
G90 ; Absolute positioning
M82 ; Extruder in absolute mode
; Activate all used extruder
M104 T0 S200
G92 E0 ; Reset extruder position
; Wait for all used extruders to reach temperature
M109 T0 S200
T0
M83
G1 E10 F100
M82
G92 E0 ; Reset extruder position
M117 Vertex is printing
G1 F300 Z5
;Layer count: 37
;LAYER:0
M106 S255
G0 F8400 X43.398 Y65.845 Z0.200
;TYPE:SKIRT
G1 F1800 X107.515 Y65.845 E1.25953
G1 X107.502 Y65.872 E1.26012
G1 X107.690 Y65.872 E1.26381
G1 X103.558 Y74.107 E1.44481
G1 X101.515 Y76.451 E1.50589
G1 X99.518 Y77.928 E1.55468
G1 X100.506 Y78.318 E1.57555
G1 X101.240 Y78.762 E1.59240
G1 X104.753 Y80.830 E1.67248
G1 X106.296 Y82.218 E1.71325
G1 X107.174 Y82.295 E1.73056
G1 X109.586 Y82.923 E1.77952
G1 X112.285 Y84.559 E1.84152
G1 X114.295 Y88.080 E1.92117
G1 X114.017 Y89.046 E1.94091
G1 X114.790 Y89.541 E1.95895
G1 X117.052 Y92.796 E2.03681
G1 X116.148 Y97.166 E2.12447
G1 X115.270 Y97.708 E2.14474
G1 X114.977 Y99.675 E2.18381
G1 X114.492 Y100.581 E2.20400
G1 X113.023 Y103.472 E2.26770
G1 X112.210 Y104.305 E2.29057
G1 X112.209 Y104.304 E2.29059
G1 X112.054 Y104.466 E2.29500
G1 X113.708 Y105.763 E2.33629
G1 X114.734 Y107.291 E2.37244
G1 X115.965 Y107.953 E2.39990
G1 X117.138 Y108.581 E2.42604
G1 X118.209 Y110.558 E2.47021
G1 X118.224 Y110.959 E2.47809
G1 X119.948 Y112.737 E2.52674
G1 X119.339 Y116.615 E2.60386
G1 X119.289 Y116.684 E2.60553
G1 X119.390 Y118.595 E2.64312
G1 X117.693 Y120.176 E2.68868
G1 X117.693 Y121.073 E2.70630
G1 X115.340 Y123.495 E2.77264
G1 X115.339 Y123.679 E2.77625
G1 X112.233 Y126.296 E2.85604
G1 X109.651 Y127.771 E2.91445
G1 X108.597 Y128.091 E2.93609
G1 X108.448 Y129.030 E2.95477
G1 X107.235 Y131.876 E3.01554
G1 X105.254 Y134.482 E3.07985
G1 X102.454 Y136.592 E3.14872
G1 X98.822 Y137.933 E3.22478
G1 X97.820 Y137.967 E3.24447
G1 X94.080 Y138.203 E3.31809
G1 X92.920 Y137.847 E3.34192
G1 X88.953 Y136.687 E3.42311
G1 X88.127 Y136.297 E3.44106
G1 X85.908 Y135.255 E3.48922
G1 X83.454 Y136.808 E3.54627
G1 X82.638 Y137.125 E3.56346
G1 X79.134 Y138.547 E3.63775
G1 X78.279 Y138.660 E3.65469
G1 X74.850 Y139.176 E3.72281
G1 X73.949 Y139.088 E3.74059
G1 X70.545 Y138.753 E3.80778
G1 X67.327 Y137.677 E3.87444
G1 X64.498 Y136.069 E3.93836
G1 X63.859 Y135.526 E3.95484
G1 X61.309 Y133.408 E4.01995
G1 X60.684 Y132.586 E4.04024
G1 X57.891 Y129.046 E4.12882
G1 X57.484 Y128.294 E4.14562
G1 X55.615 Y124.928 E4.22125
G1 X55.359 Y124.286 E4.23483
G1 X55.358 Y124.286 E4.23485
G1 X54.706 Y122.702 E4.26849
G1 X54.005 Y122.498 E4.28284
G1 X51.564 Y121.033 E4.33876
G1 X51.028 Y120.610 E4.35217
G1 X49.297 Y118.618 E4.40402
G1 X48.807 Y117.871 E4.42157
G1 X46.445 Y113.351 E4.52175
G1 X46.055 Y112.550 E4.53925
G1 X45.794 Y111.909 E4.55285
G1 X45.793 Y111.909 E4.55287
G1 X43.894 Y107.389 E4.64918
G1 X43.760 Y106.459 E4.66763
G1 X43.305 Y103.456 E4.72730
G1 X43.243 Y102.676 E4.74267
G1 X42.855 Y97.843 E4.83792
G1 X42.888 Y96.743 E4.85954
G1 X43.187 Y91.288 E4.96686
G1 X43.307 Y90.396 E4.98454
G1 X43.890 Y86.218 E5.06741
G1 X43.400 Y86.139 E5.07716
G1 X43.398 Y65.845 E5.47582
G1 F6600 E2.47582
G0 F8400 X47.027 Y69.474
;TYPE:WALL-INNER
G1 F6600 E5.47582
G1 F1800 X101.740 Y69.474 E6.55061
G1 X101.727 Y69.501 E6.55120
G1 X101.809 Y69.501 E6.55281
G1 X100.520 Y72.069 E6.60926
G1 X99.038 Y73.769 E6.65356
G1 X95.727 Y76.219 E6.73447
G1 X93.424 Y77.782 E6.78915
G1 X93.407 Y78.283 E6.79900
G1 X93.360 Y78.283 E6.79992
G1 X93.357 Y78.964 E6.81330
G1 X93.357 Y79.382 E6.82151
G1 X94.032 Y79.878 E6.83796
G1 X94.360 Y79.988 E6.84476
G1 X95.447 Y80.226 E6.86662
G1 X96.002 Y80.443 E6.87833
G1 X98.889 Y81.581 E6.93929
G1 X99.397 Y81.888 E6.95095
G1 X102.595 Y83.771 E7.02385
G1 X104.770 Y85.727 E7.08131
G1 X106.552 Y85.883 E7.11645
G1 X108.157 Y86.301 E7.14903
G1 X109.600 Y87.176 E7.18218
G1 X110.383 Y88.547 E7.21320
G1 X110.249 Y89.012 E7.22270
G1 X110.189 Y89.130 E7.22530
G1 X109.717 Y89.767 E7.24088
G1 X109.692 Y90.585 E7.25696
G1 X112.223 Y92.206 E7.31600
G1 X113.183 Y93.587 E7.34904
G1 X112.911 Y94.899 E7.37536
G1 X111.928 Y95.506 E7.39805
G1 X111.480 Y98.519 E7.45789
G1 X110.040 Y101.332 E7.51997
G1 X109.613 Y101.770 E7.53199
G1 X106.278 Y105.247 E7.62663
G1 X109.243 Y106.872 E7.69305
G1 X111.015 Y108.262 E7.73729
G1 X112.222 Y110.060 E7.77983
G1 X114.465 Y111.267 E7.82987
G1 X114.613 Y111.539 E7.83595
G1 X114.648 Y112.484 E7.85453
G1 X116.082 Y113.964 E7.89501
G1 X115.891 Y115.184 E7.91927
G1 X115.119 Y116.240 E7.94497
G1 X115.454 Y116.550 E7.95393
G1 X115.661 Y116.807 E7.96042
G1 X115.676 Y117.095 E7.96608
G1 X115.141 Y117.593 E7.98044
G1 X114.064 Y118.130 E8.00408
G1 X114.064 Y119.601 E8.03298
G1 X113.267 Y120.421 E8.05544
G1 X111.722 Y120.982 E8.08773
G1 X111.718 Y121.985 E8.10743
G1 X110.147 Y123.308 E8.14778
G1 X108.207 Y124.416 E8.19167
G1 X105.369 Y125.278 E8.24993
G1 X104.934 Y128.019 E8.30445
G1 X104.074 Y130.037 E8.34754
G1 X102.668 Y131.887 E8.39319
G1 X100.697 Y133.372 E8.44167
G1 X98.114 Y134.326 E8.49576
G1 X94.510 Y134.540 E8.56668
G1 X93.941 Y134.365 E8.57838
G1 X90.249 Y133.285 E8.65394
G1 X89.670 Y133.012 E8.66652
G1 X85.660 Y131.129 E8.75354
G1 X84.864 Y131.621 E8.77192
G1 X81.813 Y133.552 E8.84286
G1 X81.297 Y133.752 E8.85373
G1 X78.200 Y135.010 E8.91939
G1 X74.756 Y135.520 E8.98778
G1 X71.309 Y135.181 E9.05583
G1 X68.809 Y134.345 E9.10761
G1 X66.592 Y133.085 E9.15770
G1 X66.180 Y132.736 E9.16831
G1 X63.944 Y130.879 E9.22541
G1 X63.535 Y130.341 E9.23868
G1 X60.932 Y127.042 E9.32123
G1 X60.658 Y126.534 E9.33257
G1 X58.897 Y123.363 E9.40382
G1 X57.381 Y119.664 E9.48235
G1 X56.961 Y119.578 E9.49078
G1 X55.471 Y119.145 E9.52126
G1 X53.629 Y118.039 E9.56346
G1 X53.542 Y117.970 E9.56564
G1 X52.199 Y116.425 E9.60586
G1 X51.938 Y116.028 E9.61519
G1 X49.682 Y111.710 E9.71090
G1 X49.375 Y111.080 E9.72466
G1 X49.140 Y110.505 E9.73687
G1 X47.419 Y106.410 E9.82412
G1 X46.913 Y103.041 E9.89105
G1 X46.489 Y97.749 E9.99534
G1 X46.514 Y96.890 E10.01222
G1 X46.802 Y91.638 E10.11555
G1 X46.903 Y90.889 E10.13039
G1 X47.385 Y87.425 E10.19910
G1 X49.394 Y84.412 E10.27024
G1 X49.101 Y84.012 E10.27998
G1 X48.816 Y83.728 E10.28788
G1 X48.664 Y83.286 E10.29706
G1 X48.161 Y83.206 E10.30707
G1 X47.029 Y83.042 E10.32954
G1 X47.027 Y69.474 E10.59607
G0 F8400 X46.712 Y69.159
;TYPE:WALL-OUTER
G1 F1800 X102.241 Y69.159 E11.68690
G1 X102.228 Y69.186 E11.68748
G1 X102.320 Y69.186 E11.68929
G1 X100.785 Y72.246 E11.75654
G1 X99.254 Y74.001 E11.80229
G1 X95.904 Y76.480 E11.88416
G1 X93.734 Y77.953 E11.93568
G1 X93.712 Y78.598 E11.94836
G1 X93.674 Y78.598 E11.94911
G1 X93.672 Y79.222 E11.96136
G1 X94.179 Y79.595 E11.97373
G1 X94.444 Y79.684 E11.97922
G1 X95.541 Y79.924 E12.00128
G1 X99.031 Y81.298 E12.07496
G1 X99.559 Y81.618 E12.08709
G1 X102.783 Y83.515 E12.16057
G1 X104.902 Y85.423 E12.21659
G1 X106.605 Y85.572 E12.25017
G1 X108.284 Y86.009 E12.28425
G1 X109.833 Y86.948 E12.31983
G1 X110.723 Y88.507 E12.35510
G1 X110.544 Y89.127 E12.36777
G1 X110.459 Y89.296 E12.37149
G1 X110.029 Y89.875 E12.38566
G1 X110.012 Y90.416 E12.39629
G1 X112.445 Y91.975 E12.45306
G1 X113.518 Y93.518 E12.48997
G1 X113.192 Y95.096 E12.52163
G1 X112.218 Y95.697 E12.54411
G1 X111.784 Y98.619 E12.60214
G1 X110.299 Y101.518 E12.66613
G1 X109.839 Y101.989 E12.67906
G1 X106.790 Y105.168 E12.76559
G1 X109.411 Y106.605 E12.82431
G1 X111.250 Y108.047 E12.87022
G1 X112.440 Y109.820 E12.91216
G1 X114.697 Y111.032 E12.96249
G1 X114.925 Y111.454 E12.97191
G1 X114.958 Y112.352 E12.98956
G1 X116.418 Y113.857 E13.03075
G1 X116.190 Y115.307 E13.05959
G1 X115.539 Y116.199 E13.08128
G1 X115.689 Y116.338 E13.08530
G1 X115.970 Y116.687 E13.09410
G1 X115.998 Y117.225 E13.10468
G1 X115.322 Y117.855 E13.12283
G1 X114.379 Y118.325 E13.14353
G1 X114.379 Y119.728 E13.17109
G1 X113.442 Y120.692 E13.19750
G1 X112.036 Y121.203 E13.22689
G1 X112.032 Y122.132 E13.24514
G1 X110.328 Y123.568 E13.28891
G1 X108.332 Y124.708 E13.33407
G1 X105.649 Y125.522 E13.38915
G1 X105.239 Y128.107 E13.44056
G1 X104.348 Y130.198 E13.48521
G1 X102.892 Y132.113 E13.53247
G1 X100.850 Y133.652 E13.58270
G1 X98.177 Y134.639 E13.63867
G1 X97.644 Y134.657 E13.64915
G1 X94.472 Y134.857 E13.71159
G1 X93.851 Y134.667 E13.72434
G1 X90.132 Y133.579 E13.80046
G1 X85.681 Y131.487 E13.89707
G1 X85.031 Y131.888 E13.91208
G1 X81.952 Y133.836 E13.98365
G1 X81.413 Y134.045 E13.99501
G1 X78.284 Y135.316 E14.06135
G1 X74.764 Y135.838 E14.13126
G1 X71.244 Y135.492 E14.20074
G1 X68.687 Y134.637 E14.25370
G1 X66.406 Y133.341 E14.30524
G1 X65.977 Y132.977 E14.31629
G1 X63.717 Y131.100 E14.37400
G1 X63.286 Y130.534 E14.38798
G1 X60.671 Y127.221 E14.47089
G1 X60.382 Y126.686 E14.48283
G1 X58.615 Y123.506 E14.55430
G1 X58.423 Y123.026 E14.56445
G1 X57.153 Y119.939 E14.63003
G1 X55.343 Y119.436 E14.66693
G1 X53.445 Y118.296 E14.71042
G1 X53.323 Y118.200 E14.71347
G1 X51.946 Y116.615 E14.75472
G1 X51.670 Y116.194 E14.76461
G1 X49.403 Y111.856 E14.86076
G1 X49.080 Y111.192 E14.87526
G1 X48.849 Y110.626 E14.88727
G1 X47.113 Y106.492 E14.97535
G1 X46.600 Y103.082 E15.04309
G1 X46.173 Y97.751 E15.14815
G1 X46.199 Y96.885 E15.16517
G1 X46.488 Y91.608 E15.26899
G1 X47.084 Y87.308 E15.35427
G1 X49.009 Y84.420 E15.42245
G1 X48.862 Y84.217 E15.42737
G1 X48.541 Y83.898 E15.43626
G1 X48.428 Y83.568 E15.44311
G1 X46.714 Y83.314 E15.47715
G1 X46.712 Y69.159 E15.75522
G0 F8400 X47.198 Y69.695
;TYPE:SKIN
G1 F1800 X104.864 Y127.361 E17.35725
G0 F8400 X104.925 Y126.977
G1 F1800 X47.593 Y69.645 E18.95000
G0 F8400 X48.039 Y69.645
G1 F1800 X104.986 Y126.592 E20.53205
G0 F8400 X105.047 Y126.208
G1 F1800 X48.484 Y69.645 E22.10344
G0 F8400 X48.930 Y69.645
G1 F1800 X105.108 Y125.823 E23.66413
G0 F8400 X105.169 Y125.439
G1 F1800 X49.375 Y69.645 E25.21416
G0 F8400 X49.821 Y69.645
G1 F1800 X105.295 Y125.119 E26.75529
G0 F8400 X105.636 Y125.015
G1 F1800 X50.266 Y69.645 E28.29353
G0 F8400 X50.712 Y69.645
G1 F1800 X105.978 Y124.911 E29.82889
G0 F8400 X106.319 Y124.807
G1 F1800 X51.157 Y69.645 E31.36136
G0 F8400 X51.603 Y69.645
G1 F1800 X106.662 Y124.704 E32.89096
G0 F8400 X107.003 Y124.600
G1 F1800 X52.048 Y69.645 E34.41768
G0 F8400 X52.494 Y69.645
G1 F1800 X107.345 Y124.496 E35.94150
G0 F8400 X107.687 Y124.393
G1 F1800 X52.939 Y69.645 E37.46247
G0 F8400 X53.385 Y69.645
G1 F1800 X108.028 Y124.289 E38.98053
G0 F8400 X108.330 Y124.146
G1 F1800 X53.830 Y69.645 E40.49462
G0 F8400 X54.276 Y69.645
G1 F1800 X108.614 Y123.984 E42.00420
G0 F8400 X108.897 Y123.822
G1 F1800 X54.721 Y69.645 E43.50929
G0 F8400 X55.167 Y69.645
G1 F1800 X109.181 Y123.660 E45.00988
G0 F8400 X109.465 Y123.498
G1 F1800 X55.612 Y69.645 E46.50598
G0 F8400 X56.058 Y69.645
G1 F1800 X109.748 Y123.336 E47.99757
G0 F8400 X110.032 Y123.174
G1 F1800 X56.503 Y69.645 E49.48466
G0 F8400 X56.948 Y69.645
G1 F1800 X110.276 Y122.972 E50.96617
G0 F8400 X110.517 Y122.769
G1 F1800 X57.394 Y69.645 E52.44200
G0 F8400 X57.839 Y69.645
G1 F1800 X110.759 Y122.565 E53.91218
G0 F8400 X111.001 Y122.362
G1 F1800 X58.285 Y69.645 E55.37671
G0 F8400 X58.730 Y69.645
G1 F1800 X111.243 Y122.158 E56.83558
G0 F8400 X111.485 Y121.954
G1 F1800 X59.176 Y69.645 E58.28879
G0 F8400 X59.621 Y69.645
G1 F1800 X111.547 Y121.571 E59.73135
G0 F8400 X111.549 Y121.128
G1 F1800 X60.067 Y69.645 E61.16160
G0 F8400 X60.512 Y69.645
G1 F1800 X111.679 Y120.812 E62.58308
G0 F8400 X112.006 Y120.693
G1 F1800 X60.958 Y69.645 E64.00125
G0 F8400 X61.403 Y69.645
G1 F1800 X112.333 Y120.575 E65.41615
G0 F8400 X112.659 Y120.456
G1 F1800 X61.849 Y69.645 E66.82772
G0 F8400 X62.294 Y69.645
G1 F1800 X112.986 Y120.337 E68.23601
G0 F8400 X113.267 Y120.173
G1 F1800 X62.740 Y69.645 E69.63972
G0 F8400 X63.185 Y69.645
G1 F1800 X113.487 Y119.947 E71.03717
G0 F8400 X113.706 Y119.720
G1 F1800 X63.631 Y69.645 E72.42832
G0 F8400 X64.076 Y69.645
G1 F1800 X113.892 Y119.461 E73.81226
G0 F8400 X113.892 Y119.015
G1 F1800 X64.522 Y69.645 E75.18382
G0 F8400 X64.967 Y69.645
G1 F1800 X113.892 Y118.570 E76.54301
G0 F8400 X113.892 Y118.125
G1 F1800 X65.413 Y69.645 E77.88983
G0 F8400 X65.858 Y69.645
G1 F1800 X114.121 Y117.908 E79.23064
G0 F8400 X114.418 Y117.760
G1 F1800 X66.303 Y69.645 E80.56733
G0 F8400 X66.749 Y69.645
G1 F1800 X114.715 Y117.611 E81.89988
G0 F8400 X115.012 Y117.463
G1 F1800 X67.194 Y69.645 E83.22832
G0 F8400 X67.640 Y69.645
G1 F1800 X115.249 Y117.255 E84.55097
G0 F8400 X115.481 Y117.041
G1 F1800 X68.085 Y69.645 E85.86769
G0 F8400 X68.531 Y69.645
G1 F1800 X114.998 Y116.113 E87.15861
G0 F8400 X115.186 Y115.855
G1 F1800 X68.976 Y69.645 E88.44238
G0 F8400 X69.422 Y69.645
G1 F1800 X115.375 Y115.598 E89.71901
G0 F8400 X115.563 Y115.341
G1 F1800 X69.867 Y69.645 E90.98850
G0 F8400 X70.313 Y69.645
G1 F1800 X115.734 Y115.067 E92.25036
G0 F8400 X115.795 Y114.682
G1 F1800 X106.895 Y105.782 E92.49761
G0 F8400 X106.196 Y105.083
G1 F1800 X70.758 Y69.645 E93.48212
G0 F8400 X71.204 Y69.645
G1 F1800 X106.414 Y104.856 E94.46031
G0 F8400 X106.633 Y104.629
G1 F1800 X71.649 Y69.645 E95.43221
G0 F8400 X72.095 Y69.645
G1 F1800 X106.851 Y104.402 E96.39779
G0 F8400 X107.069 Y104.174
G1 F1800 X72.540 Y69.645 E97.35704
G0 F8400 X72.986 Y69.645
G1 F1800 X107.287 Y103.947 E98.30998
G0 F8400 X107.506 Y103.720
G1 F1800 X73.431 Y69.645 E99.25662
G0 F8400 X73.877 Y69.645
G1 F1800 X107.724 Y103.492 E100.19693
G0 F8400 X107.942 Y103.265
G1 F1800 X74.322 Y69.645 E101.13094
G0 F8400 X74.768 Y69.645
G1 F1800 X108.161 Y103.038 E102.05863
G0 F8400 X108.379 Y102.811
G1 F1800 X75.213 Y69.645 E102.98003
G0 F8400 X75.659 Y69.645
G1 F1800 X108.597 Y102.584 E103.89510
G0 F8400 X108.815 Y102.357
G1 F1800 X76.104 Y69.645 E104.80386
G0 F8400 X76.549 Y69.645
G1 F1800 X109.034 Y102.130 E105.70633
G0 F8400 X109.252 Y101.902
G1 F1800 X76.995 Y69.645 E106.60247
G0 F8400 X77.440 Y69.645
G1 F1800 X109.470 Y101.675 E107.49230
G0 F8400 X109.689 Y101.448
G1 F1800 X77.886 Y69.645 E108.37583
G0 F8400 X78.331 Y69.645
G1 F1800 X109.904 Y101.218 E109.25296
G0 F8400 X110.055 Y100.923
G1 F1800 X78.777 Y69.645 E110.12190
G0 F8400 X79.222 Y69.645
G1 F1800 X110.206 Y100.629 E110.98267
G0 F8400 X110.356 Y100.334
G1 F1800 X79.668 Y69.645 E111.83524
G0 F8400 X80.113 Y69.645
G1 F1800 X110.507 Y100.039 E112.67962
G0 F8400 X106.336 Y105.238
G0 X107.880 Y106.321
G1 F1800 X115.855 Y114.297 E112.90119
G0 F8400 X114.474 Y112.470
G1 F1800 X112.304 Y110.300 E112.96147
G0 F8400 X111.912 Y109.908
G1 F1800 X108.866 Y106.862 E113.04609
G0 F8400 X110.626 Y108.177
G1 F1800 X111.004 Y108.555 E113.05660
G0 F8400 X112.197 Y110.088
G0 X113.267 Y110.817
G1 F1800 X114.457 Y112.008 E113.08967
G0 F8400 X114.396 Y111.501
G1 F1800 X114.230 Y111.335 E113.09428
G0 F8400 X112.197 Y110.088
G0 X106.336 Y105.238
G0 X110.658 Y99.745
G1 F1800 X80.559 Y69.645 E113.93048
G0 F8400 X81.004 Y69.645
G1 F1800 X110.809 Y99.450 E114.75850
G0 F8400 X110.959 Y99.155
G1 F1800 X81.450 Y69.645 E115.57831
G0 F8400 X81.895 Y69.645
G1 F1800 X111.110 Y98.860 E116.38994
G0 F8400 X111.261 Y98.566
G1 F1800 X82.341 Y69.645 E117.19338
G0 F8400 X82.786 Y69.645
G1 F1800 X111.351 Y98.210 E117.98695
G0 F8400 X111.408 Y97.822
G1 F1800 X83.232 Y69.645 E118.76973
G0 F8400 X83.677 Y69.645
G1 F1800 X93.185 Y79.153 E119.03387
G0 F8400 X93.186 Y78.709
G1 F1800 X84.123 Y69.645 E119.28567
G0 F8400 X84.568 Y69.645
G1 F1800 X93.188 Y78.265 E119.52514
G0 F8400 X93.247 Y77.879
G1 F1800 X85.014 Y69.645 E119.75388
G0 F8400 X85.459 Y69.645
G1 F1800 X93.398 Y77.585 E119.97445
G0 F8400 X93.658 Y77.399
G1 F1800 X85.904 Y69.645 E120.18986
G0 F8400 X86.350 Y69.645
G1 F1800 X93.918 Y77.213 E120.40011
G0 F8400 X94.178 Y77.027
G1 F1800 X86.795 Y69.645 E120.60520
G0 F8400 X87.241 Y69.645
G1 F1800 X94.438 Y76.842 E120.80514
G0 F8400 X94.697 Y76.656
G1 F1800 X87.686 Y69.645 E120.99992
G0 F8400 X88.132 Y69.645
G1 F1800 X94.958 Y76.471 E121.18955
G0 F8400 X95.217 Y76.285
G1 F1800 X88.577 Y69.645 E121.37402
G0 F8400 X89.023 Y69.645
G1 F1800 X95.477 Y76.100 E121.55333
G0 F8400 X95.737 Y75.914
G1 F1800 X89.468 Y69.645 E121.72749
G0 F8400 X89.914 Y69.645
G1 F1800 X95.997 Y75.729 E121.89650
G0 F8400 X96.257 Y75.543
G1 F1800 X90.359 Y69.645 E122.06035
G0 F8400 X90.805 Y69.645
G1 F1800 X96.517 Y75.357 E122.21904
